!! 00000] TT[WS
!!!OTL: Fa her
!!!ARE: Asia, China,ÿShanxi Linxian
!! Ethnic Group: Han
!! WI, 213 (2)
!!!SCT: J0253
!!!YEM: Copyright 1995, estate of Helmut Schaffrath.
**kern
*ICvox
*Ivox
*M2/4
*k[f#]
*G:
{16gg
8gg
16ee
16dd
8b
16dd
=1
16gg
8gg
16ee
16dd
8dd
16b
=2
16dd
8dd
16gg
16ee
8dd
16b
=3
16a
8a
16g
4a}
=4
{16dd
8dd
16b
16ee
8ee
16dd
=5
16ee
8b
16a
16g
8g
16e
=6
16dd
8dd
16b
16dd
8a
16g
=7
2d}
==
!!!AGN: Xiaodiao. Fengsuge, Jiating shenghuo
!!!ONB: ESAC (Essen Associative Code) Database: CHINA
!!!AMT: simple duple
!!!AIN: vox
!!!EED: Helmut Schaffrath
!!!EEV: 1.0
*-
